X: 022
T: Buffalo Gals
T: (Old Folks At Home)
S: Viola Ruth "Pioneer Western Folk Tunes" 1948 p.2 #2
R: march
Z: 2019 John Chambers <jc:trillian.mit.edu>
M: 2/4
L: 1/16
K: G
V: 1 name=" "
(3(DEF) |:\
G2A2 B2dd | ed2B G2B2 | dc2A F2A2 | ed2d d2 (3(DEF) |\
G2A2 B2d2 | ed2B G3B | d3c A2B2 |[1 G4- G2 (3(DEF) :|[2 G4- G2 ||
gg |\
g2f2e2d2 | ed2B G2B2 | dc2A F3A | ed2d d2(ef) |\
g2f2e2d2 | ed2B G2(Bc) | d3c A2B2 | G6 |]

